; HEADER_BLOCK_START
; generated by Creality_Print V6.3.0.3420 on 2026-06-16 at 11:04:59
; total layer number: 350
; filament_density: 1.24
; filament_diameter: 1.75
; max_z_height: 70.00
; creality_uuid: 3d14974b-04f4-414b-a483-c211451e8ff7
; HEADER_BLOCK_END

; MINX = 72.00
; MINY = 79.50
; MINZ = 0.00
; MAXX = 148.00
; MAXY = 140.50
; MAXZ = 70.00

; multicolor_method = 0 
; THUMBNAIL_BLOCK_START

;
; THUMBNAIL_BLOCK_END

; THUMBNAIL_BLOCK_START

;
; THUMBNAIL_BLOCK_END

; external perimeters extrusion width = 0.42mm
; perimeters extrusion width = 0.45mm
; infill extrusion width = 0.45mm
; solid infill extrusion width = 0.42mm
; top infill extrusion width = 0.42mm
; first layer extrusion width = 0.50mm

; EXECUTABLE_BLOCK_START
EXCLUDE_OBJECT_DEFINE NAME=v2.tomagoshiRobot_Body.stl_id_0_copy_0 CENTER=110,110 POLYGON=[[72,82.55],[72.022,82.31],[72.046,82.072],[72.184,81.606],[72.412,81.164],[72.724,80.756],[72.918,80.574],[73.112,80.392],[73.564,80.08],[74.074,79.832],[74.35,79.738],[74.626,79.648],[74.914,79.592],[75.206,79.538],[75.502,79.518],[75.8,79.5],[144.2,79.5],[144.496,79.518],[144.794,79.538],[145.084,79.592],[145.372,79.648],[145.648,79.738],[145.924,79.832],[146.18,79.956],[146.434,80.08],[146.886,80.392],[147.274,80.756],[147.43,80.96],[147.586,81.164],[147.814,81.606],[147.952,82.072],[147.976,82.31],[148,82.55],[148,137.45],[147.976,137.688],[147.952,137.926],[147.814,138.392],[147.7,138.614],[147.586,138.834],[147.43,139.038],[147.274,139.242],[146.886,139.606],[146.434,139.916],[146.18,140.042],[145.924,140.168],[145.372,140.35],[145.084,140.406],[144.794,140.462],[144.2,140.5],[75.8,140.5],[75.206,140.462],[74.914,140.406],[74.626,140.35],[74.074,140.168],[73.564,139.916],[73.338,139.762],[73.112,139.606],[72.724,139.242],[72.412,138.834],[72.298,138.614],[72.184,138.392],[72.046,137.926],[72.022,137.688],[72,137.45],[72,82.55]]
M73 P0 R75
M106 S0
M106 P2 S0
; max_print_temp = 50,220
;TYPE:Custom
START_PRINT EXTRUDER_TEMP=220 BED_TEMP=50
T0
M204 S2000
M104 S220
G1 Z3 F600
M83
G92 E0
G1 Z1 F600
G90
G21
M83 ; use relative distances for extrusion
G1 E-.8 F2400
G1 Z.2 F30000
M106 S0
;LAYER_CHANGE
;Z:0.2
;HEIGHT:0.2
;BEFORE_LAYER_CHANGE
;0.2
G92 E0

;AFTER_LAYER_CHANGE
;0.2
;_SET_FAN_SPEED_CHANGING_LAYER
SET_VELOCITY_LIMIT ACCEL=1000 ACCEL_TO_DECEL=1000
SET_VELOCITY_LIMIT SQUARE_CORNER_VELOCITY=20
; printing object v2.tomagoshiRobot Body.stl id:0 copy 0
EXCLUDE_OBJECT_START NAME=v2.tomagoshiRobot_Body.stl_id_0_copy_0
G1 X144.182 Y83.231 Z.6 F30000
G1 Z.2
G1 E.8 F2400
;TYPE:Inner wall
;WIDTH:0.5
G1 F3600
G1 X144.182 Y137.267 E1.951
G1 X75.817 Y137.267 E2.46839
G1 X75.817 Y82.731 E1.96905
G1 X144.182 Y82.731 E2.46839
G1 X144.182 Y83.191 E.01661
G1 X144.541 Y82.384 F30000
;TYPE:Outer wall
G1 F3600
G3 X144.639 Y82.568 I-.252 J.252 E.00763
G1 X144.639 Y137.431 E1.9809
G3 X144.36 Y137.702 I-.321 J-.052 E.01506
G3 X144.187 Y137.724 I-.173 J-.688 E.00631
G1 X75.813 Y137.724 E2.46871
G3 X75.364 Y137.479 I-.041 J-.46 E.01958
G1 X75.36 Y82.566 E1.98269
G3 X75.642 Y82.295 I.322 J.054 E.01512
G3 X75.813 Y82.274 I.168 J.663 E.00625
G1 X144.279 Y82.28 E2.47203
G3 X144.512 Y82.358 I.011 J.356 E.00905
G1 E-.8 F2400
;WIPE_START
G1 F3600
G1 X144.609 Y82.456
G1 X144.639 Y82.568
G1 X144.639 Y84.314
;WIPE_END
G1 X144.045 Y83.795 Z.6 F30000
G1 Z.2
G1 E.8 F2400
;TYPE:Bottom surface
;WIDTH:0.501017
G1 F3600
G1 X143.325 Y83.074 E.03687
G1 X142.677 Y83.074 E.02344
G1 X143.839 Y84.237 E.0595
G1 X143.839 Y84.885 E.02344
G1 X142.029 Y83.074 E.09265
G1 X141.381 Y83.074 E.02344
G1 X143.839 Y85.532 E.1258
G1 X143.839 Y86.18 E.02344
G1 X140.733 Y83.074 E.15896
G1 X140.085 Y83.074 E.02344
G1 X143.839 Y86.828 E.19211
G1 X143.839 Y87.476 E.02344
G1 X139.437 Y83.074 E.22527
G1 X138.79 Y83.074 E.02344
G1 X143.839 Y88.124 E.25842
G1 X143.839 Y88.772 E.02344
G1 X138.142 Y83.074 E.29157
G1 X137.494 Y83.074 E.02344
G1 X143.839 Y89.42 E.32473
G1 X143.839 Y90.067 E.02344
G1 X136.846 Y83.074 E.35788
G1 X136.198 Y83.074 E.02344
G1 X143.839 Y90.715 E.39103
G1 X143.839 Y91.363 E.02344
G1 X135.55 Y83.074 E.42419
G1 X134.903 Y83.074 E.02344
G1 X143.839 Y92.011 E.45734
G1 X143.839 Y92.659 E.02344
G1 X134.255 Y83.074 E.4905
G1 X133.607 Y83.074 E.02344
G1 X143.839 Y93.307 E.52365
G1 X143.839 Y93.954 E.02344
G1 X132.959 Y83.074 E.5568
G1 X132.311 Y83.074 E.02344
G1 X143.839 Y94.602 E.58996
G1 X143.839 Y95.25 E.02344
G1 X131.663 Y83.074 E.62311
G1 X131.015 Y83.074 E.02344
G1 X143.839 Y95.898 E.65626
G1 X143.839 Y96.546 E.02344
G1 X130.368 Y83.074 E.68942
G1 X129.72 Y83.074 E.02344
G1 X143.839 Y97.194 E.72257
G1 X143.839 Y97.842 E.02344
G1 X129.072 Y83.074 E.75573
G1 X128.424 Y83.074 E.02344
G1 X143.839 Y98.489 E.78888
G1 X143.839 Y99.137 E.02344
G1 X127.776 Y83.074 E.82203
G1 X127.128 Y83.074 E.02344
G1 X143.839 Y99.785 E.85519
G1 X143.839 Y100.433 E.02344
G1 X126.481 Y83.074 E.88834
G1 X125.833 Y83.074 E.02344
G1 X143.839 Y101.081 E.92149
G1 X143.839 Y101.729 E.02344
G1 X125.185 Y83.074 E.95465
G1 X124.537 Y83.074 E.02344
G1 X143.839 Y102.376 E.9878
G1 X143.839 Y103.024 E.02344
M73 P0 R74
G1 X123.889 Y83.074 E1.02096
G1 X123.241 Y83.074 E.02344
G1 X143.839 Y103.672 E1.05411
G1 X143.839 Y104.32 E.02344
G1 X122.593 Y83.074 E1.08726
G1 X121.946 Y83.074 E.02344
G1 X143.839 Y104.968 E1.12042
G1 X143.839 Y105.616 E.02344
G1 X121.298 Y83.074 E1.15357
G1 X120.65 Y83.074 E.02344
G1 X143.839 Y106.264 E1.18672
G1 X143.839 Y106.911 E.02344
G1 X120.002 Y83.074 E1.21988
G1 X119.354 Y83.074 E.02344
G1 X143.839 Y107.559 E1.25303
G1 X143.839 Y108.207 E.02344
G1 X118.706 Y83.074 E1.28619
G1 X118.059 Y83.074 E.02344
G1 X143.839 Y108.855 E1.31934
G1 X143.839 Y109.503 E.02344
G1 X117.411 Y83.074 E1.35249
G1 X116.763 Y83.074 E.02344
G1 X143.839 Y110.151 E1.38565
G1 X143.839 Y110.799 E.02344
G1 X116.115 Y83.074 E1.4188
G1 X115.467 Y83.074 E.02344
G1 X143.839 Y111.446 E1.45195
G1 X143.839 Y112.094 E.02344
G1 X114.819 Y83.074 E1.48511
G1 X114.171 Y83.074 E.02344
G1 X143.839 Y112.742 E1.51826
G1 X143.839 Y113.39 E.02344
G1 X113.524 Y83.074 E1.55141
G1 X112.876 Y83.074 E.02344
G1 X143.839 Y114.038 E1.58457
G1 X143.839 Y114.686 E.02344
G1 X112.228 Y83.074 E1.61772
G1 X111.58 Y83.074 E.02344
G1 X143.839 Y115.333 E1.65088
G1 X143.839 Y115.981 E.02344
G1 X110.932 Y83.074 E1.68403
G1 X110.284 Y83.074 E.02344
G1 X143.839 Y116.629 E1.71718
G1 X143.839 Y117.277 E.02344
G1 X109.637 Y83.074 E1.75034
G1 X108.989 Y83.074 E.02344
G1 X143.839 Y117.925 E1.78349
G1 X143.839 Y118.573 E.02344
G1 X108.341 Y83.074 E1.81664
G1 X107.693 Y83.074 E.02344
G1 X143.839 Y119.221 E1.8498
G1 X143.839 Y119.868 E.02344
G1 X107.045 Y83.074 E1.88295
G1 X106.397 Y83.074 E.02344
G1 X143.839 Y120.516 E1.91611
G1 X143.839 Y121.164 E.02344
G1 X105.749 Y83.074 E1.94926
G1 X105.102 Y83.074 E.02344
G1 X143.839 Y121.812 E1.98241
G1 X143.839 Y122.46 E.02344
G1 X104.454 Y83.074 E2.01557
G1 X103.806 Y83.074 E.02344
G1 X143.839 Y123.108 E2.04872
G1 X143.839 Y123.755 E.02344
G1 X103.158 Y83.074 E2.08187
G1 X102.51 Y83.074 E.02344
M73 P1 R74
G1 X143.839 Y124.403 E2.11503
G1 X143.839 Y125.051 E.02344
G1 X101.862 Y83.074 E2.14818
G1 X101.215 Y83.074 E.02344
G1 X143.839 Y125.699 E2.18134
G1 X143.839 Y126.347 E.02344
G1 X100.567 Y83.074 E2.21449
G1 X99.919 Y83.074 E.02344
G1 X143.839 Y126.995 E2.24764
G1 X143.839 Y127.643 E.02344
G1 X99.271 Y83.074 E2.2808
G1 X98.623 Y83.074 E.02344
G1 X143.839 Y128.29 E2.31395
G1 X143.839 Y128.938 E.02344
G1 X97.975 Y83.074 E2.3471
G1 X97.327 Y83.074 E.02344
G1 X143.839 Y129.586 E2.38026
G1 X143.839 Y130.234 E.02344
G1 X96.68 Y83.074 E2.41341
G1 X96.032 Y83.074 E.02344
G1 X143.839 Y130.882 E2.44657
G1 X143.839 Y131.53 E.02344
G1 X95.384 Y83.074 E2.47972
G1 X94.736 Y83.074 E.02344
G1 X143.839 Y132.177 E2.51287
G1 X143.839 Y132.825 E.02344
G1 X94.088 Y83.074 E2.54603
G1 X93.44 Y83.074 E.02344
G1 X143.839 Y133.473 E2.57918
G1 X143.839 Y134.121 E.02344
G1 X92.793 Y83.074 E2.61233
G1 X92.145 Y83.074 E.02344
G1 X143.839 Y134.769 E2.64549
G1 X143.839 Y135.417 E.02344
G1 X91.497 Y83.074 E2.67864
G1 X90.849 Y83.074 E.02344
G1 X143.839 Y136.065 E2.7118
G1 X143.839 Y136.712 E.02344
G1 X90.201 Y83.074 E2.74495
G1 X89.553 Y83.074 E.02344
G1 X143.403 Y136.924 E2.75577
G1 X142.755 Y136.924 E.02344
G1 X88.905 Y83.074 E2.75577
G1 X88.258 Y83.074 E.02344
G1 X142.107 Y136.924 E2.75577
G1 X141.459 Y136.924 E.02344
G1 X87.61 Y83.074 E2.75577
G1 X86.962 Y83.074 E.02344
G1 X140.812 Y136.924 E2.75577
G1 X140.164 Y136.924 E.02344
G1 X86.314 Y83.074 E2.75577
G1 X85.666 Y83.074 E.02344
G1 X139.516 Y136.924 E2.75577
G1 X138.868 Y136.924 E.02344
M73 P1 R73
G1 X85.018 Y83.074 E2.75577
G1 X84.371 Y83.074 E.02344
G1 X138.22 Y136.924 E2.75577
G1 X137.572 Y136.924 E.02344
G1 X83.723 Y83.074 E2.75577
G1 X83.075 Y83.074 E.02344
G1 X136.924 Y136.924 E2.75577
G1 X136.277 Y136.924 E.02344
G1 X82.427 Y83.074 E2.75577
G1 X81.779 Y83.074 E.02344
G1 X135.629 Y136.924 E2.75577
G1 X134.981 Y136.924 E.02344
G1 X81.131 Y83.074 E2.75577
G1 X80.483 Y83.074 E.02344
G1 X134.333 Y136.924 E2.75577
G1 X133.685 Y136.924 E.02344
G1 X79.836 Y83.074 E2.75577
G1 X79.188 Y83.074 E.02344
M73 P2 R73
G1 X133.037 Y136.924 E2.75577
G1 X132.39 Y136.924 E.02344
G1 X78.54 Y83.074 E2.75577
G1 X77.892 Y83.074 E.02344
G1 X131.742 Y136.924 E2.75577
G1 X131.094 Y136.924 E.02344
G1 X77.244 Y83.074 E2.75577
G1 X76.596 Y83.074 E.02344
G1 X130.446 Y136.924 E2.75577
G1 X129.798 Y136.924 E.02344
G1 X76.16 Y83.285 E2.74496
G1 X76.16 Y83.933 E.02344
G1 X129.15 Y136.924 E2.7118
G1 X128.502 Y136.924 E.02344
G1 X76.16 Y84.581 E2.67865
G1 X76.16 Y85.229 E.02344
G1 X127.855 Y136.924 E2.64549
G1 X127.207 Y136.924 E.02344
G1 X76.16 Y85.877 E2.61234
G1 X76.16 Y86.525 E.02344
G1 X126.559 Y136.924 E2.57919
G1 X125.911 Y136.924 E.02344
G1 X76.16 Y87.173 E2.54603
G1 X76.16 Y87.82 E.02344
G1 X125.263 Y136.924 E2.51288
G1 X124.615 Y136.924 E.02344
G1 X76.16 Y88.468 E2.47973
G1 X76.16 Y89.116 E.02344
G1 X123.968 Y136.924 E2.44657
G1 X123.32 Y136.924 E.02344
G1 X76.16 Y89.764 E2.41342
G1 X76.16 Y90.412 E.02344
G1 X122.672 Y136.924 E2.38026
G1 X122.024 Y136.924 E.02344
G1 X76.16 Y91.06 E2.34711
G1 X76.16 Y91.708 E.02344
G1 X121.376 Y136.924 E2.31396
G1 X120.728 Y136.924 E.02344
G1 X76.16 Y92.355 E2.2808
G1 X76.16 Y93.003 E.02344
G1 X120.08 Y136.924 E2.24765
G1 X119.433 Y136.924 E.02344
G1 X76.16 Y93.651 E2.2145
G1 X76.16 Y94.299 E.02344
G1 X118.785 Y136.924 E2.18134
G1 X118.137 Y136.924 E.02344
G1 X76.16 Y94.947 E2.14819
G1 X76.16 Y95.595 E.02344
G1 X117.489 Y136.924 E2.11503
G1 X116.841 Y136.924 E.02344
G1 X76.16 Y96.242 E2.08188
G1 X76.16 Y96.89 E.02344
G1 X116.193 Y136.924 E2.04873
G1 X115.546 Y136.924 E.02344
G1 X76.16 Y97.538 E2.01557
G1 X76.16 Y98.186 E.02344
G1 X114.898 Y136.924 E1.98242
G1 X114.25 Y136.924 E.02344
G1 X76.16 Y98.834 E1.94927
G1 X76.16 Y99.482 E.02344
G1 X113.602 Y136.924 E1.91611
G1 X112.954 Y136.924 E.02344
G1 X76.16 Y100.13 E1.88296
G1 X76.16 Y100.777 E.02344
G1 X112.306 Y136.924 E1.8498
G1 X111.658 Y136.924 E.02344
G1 X76.16 Y101.425 E1.81665
G1 X76.16 Y102.073 E.02344
G1 X111.011 Y136.924 E1.7835
G1 X110.363 Y136.924 E.02344
G1 X76.16 Y102.721 E1.75034
G1 X76.16 Y103.369 E.02344
G1 X109.715 Y136.924 E1.71719
G1 X109.067 Y136.924 E.02344
G1 X76.16 Y104.017 E1.68404
G1 X76.16 Y104.664 E.02344
G1 X108.419 Y136.924 E1.65088
G1 X107.771 Y136.924 E.02344
G1 X76.16 Y105.312 E1.61773
G1 X76.16 Y105.96 E.02344
M73 P3 R73
G1 X107.123 Y136.924 E1.58457
G1 X106.476 Y136.924 E.02344
G1 X76.16 Y106.608 E1.55142
G1 X76.16 Y107.256 E.02344
G1 X105.828 Y136.924 E1.51827
G1 X105.18 Y136.924 E.02344
G1 X76.16 Y107.904 E1.48511
G1 X76.16 Y108.552 E.02344
G1 X104.532 Y136.924 E1.45196
G1 X103.884 Y136.924 E.02344
M73 P3 R72
G1 X76.16 Y109.199 E1.41881
G1 X76.16 Y109.847 E.02344
G1 X103.236 Y136.924 E1.38565
G1 X102.589 Y136.924 E.02344
G1 X76.16 Y110.495 E1.3525
G1 X76.16 Y111.143 E.02344
G1 X101.941 Y136.924 E1.31934
G1 X101.293 Y136.924 E.02344
G1 X76.16 Y111.791 E1.28619
G1 X76.16 Y112.439 E.02344
G1 X100.645 Y136.924 E1.25304
G1 X99.997 Y136.924 E.02344
G1 X76.16 Y113.086 E1.21988
G1 X76.16 Y113.734 E.02344
G1 X99.349 Y136.924 E1.18673
G1 X98.701 Y136.924 E.02344
G1 X76.16 Y114.382 E1.15358
G1 X76.16 Y115.03 E.02344
G1 X98.054 Y136.924 E1.12042
G1 X97.406 Y136.924 E.02344
G1 X76.16 Y115.678 E1.08727
G1 X76.16 Y116.326 E.02344
G1 X96.758 Y136.924 E1.05411
G1 X96.11 Y136.924 E.02344
G1 X76.16 Y116.974 E1.02096
G1 X76.16 Y117.621 E.02344
G1 X95.462 Y136.924 E.98781
G1 X94.814 Y136.924 E.02344
G1 X76.16 Y118.269 E.95465
G1 X76.16 Y118.917 E.02344
G1 X94.167 Y136.924 E.9215
G1 X93.519 Y136.924 E.02344
G1 X76.16 Y119.565 E.88835
G1 X76.16 Y120.213 E.02344
G1 X92.871 Y136.924 E.85519
G1 X92.223 Y136.924 E.02344
G1 X76.16 Y120.861 E.82204
G1 X76.16 Y121.508 E.02344
G1 X91.575 Y136.924 E.78889
G1 X90.927 Y136.924 E.02344
G1 X76.16 Y122.156 E.75573
G1 X76.16 Y122.804 E.02344
G1 X90.279 Y136.924 E.72258
G1 X89.632 Y136.924 E.02344
G1 X76.16 Y123.452 E.68942
G1 X76.16 Y124.1 E.02344
G1 X88.984 Y136.924 E.65627
G1 X88.336 Y136.924 E.02344
G1 X76.16 Y124.748 E.62312
G1 X76.16 Y125.396 E.02344
G1 X87.688 Y136.924 E.58996
G1 X87.04 Y136.924 E.02344
G1 X76.16 Y126.043 E.55681
G1 X76.16 Y126.691 E.02344
G1 X86.392 Y136.924 E.52366
G1 X85.745 Y136.924 E.02344
G1 X76.16 Y127.339 E.4905
G1 X76.16 Y127.987 E.02344
G1 X85.097 Y136.924 E.45735
G1 X84.449 Y136.924 E.02344
G1 X76.16 Y128.635 E.42419
G1 X76.16 Y129.283 E.02344
G1 X83.801 Y136.924 E.39104
G1 X83.153 Y136.924 E.02344
G1 X76.16 Y129.93 E.35789
G1 X76.16 Y130.578 E.02344
G1 X82.505 Y136.924 E.32473
G1 X81.857 Y136.924 E.02344
G1 X76.16 Y131.226 E.29158
G1 X76.16 Y131.874 E.02344
G1 X81.21 Y136.924 E.25843
G1 X80.562 Y136.924 E.02344
G1 X76.16 Y132.522 E.22527
G1 X76.16 Y133.17 E.02344
G1 X79.914 Y136.924 E.19212
G1 X79.266 Y136.924 E.02344
G1 X76.16 Y133.818 E.15896
G1 X76.16 Y134.465 E.02344
G1 X78.618 Y136.924 E.12581
G1 X77.97 Y136.924 E.02344
G1 X76.16 Y135.113 E.09266
G1 X76.16 Y135.761 E.02344
G1 X77.323 Y136.924 E.0595
G1 X76.675 Y136.924 E.02344
G1 X75.954 Y136.203 E.03688
G1 E-.8 F2400
;WIPE_START
G1 F3600
G1 X76.675 Y136.924
G1 X77.323 Y136.924
G1 X77.087 Y136.688
;WIPE_END
G1 X84.719 Y136.721 Z.6 F30000
G1 X143.954 Y136.978 Z.6
G1 Z.2
G1 E.8 F2400
;TYPE:Gap infill
;WIDTH:0.120961
G1 F3600
G3 X143.623 Y136.991 I-.185 J-.521 E.00207
G1 E-.8 F2400
;WIPE_START
G1 F3600
G1 X143.797 Y137.009
G1 X143.954 Y136.978
;WIPE_END
G1 X137.99 Y132.215 Z.6 F30000
G1 X76.376 Y83.007 Z.6
G1 Z.2
G1 E.8 F2400
;WIDTH:0.10431
G1 F3600
G2 X76.046 Y83.02 I-.145 J.534 E.00163
; stop printing object v2.tomagoshiRobot Body.stl id:0 copy 0
;TIME_ELAPSED:157.932434

M106 S255
;LAYER_CHANGE
;Z:0.4
;HEIGHT:0.2
;BEFORE_LAYER_CHANGE
;0.4
G92 E0

G1 E-.8 F2400
;WIPE_START
G1 F3600
G1 X76.203 Y82.989
G1 X76.376 Y83.007
;WIPE_END
EXCLUDE_OBJECT_END NAME=v2.tomagoshiRobot_Body.stl_id_0_copy_0
;AFTER_LAYER_CHANGE
;0.4
;_SET_FAN_SPEED_CHANGING_LAYER
SET_VELOCITY_LIMIT ACCEL=10000 ACCEL_TO_DECEL=10000
M140 S50 ; set bed temperature
; printing object v2.tomagoshiRobot Body.stl id:0 copy 0
EXCLUDE_OBJECT_START NAME=v2.tomagoshiRobot_Body.stl_id_0_copy_0
G17
G3 Z.6 I.003 J1.217 P1  F30000
G1 X145.087 Y82.818 Z.6
G1 Z.4
G1 E.8 F2400
SET_VELOCITY_LIMIT ACCEL=5000 ACCEL_TO_DECEL=5000
;TYPE:Inner wall
;WIDTH:0.45
G1 F2040
G1 X145.087 Y83.766 E.03048
G1 X145.087 Y136.476 E1.69496
G1 X145.087 Y137.423 E.03045
G1 X145.057 Y137.591 E.00549
G1 X144.956 Y137.748 E.006
G1 F2460
G1 X144.95 Y137.753 E.00025
M106 S255
G1 X144.772 Y137.895 E.00732
G1 F2940
G1 X144.647 Y137.956 E.00447
G1 F3960
G1 X144.355 Y138.033 E.00971
G1 F6180
G1 X144.181 Y138.044 E.00561
G1 F6600
G1 X143.362 Y138.044 E.02634
G1 X76.638 Y138.044 E2.1456
G1 X75.818 Y138.044 E.02637
G1 F6300
G1 X75.644 Y138.033 E.00561
G1 F3960
G1 X75.352 Y137.957 E.0097
G1 F2700
G1 X75.122 Y137.824 E.00854
G1 F2520
G1 X75.036 Y137.729 E.00412
G1 F2280
G1 X74.982 Y137.669 E.0026
G1 F2040
G1 X74.921 Y137.52 E.00518
G1 X74.911 Y137.421 E.0032
G1 X74.911 Y136.473 E.03048
G1 X74.911 Y83.527 E1.70255
G1 X74.911 Y82.578 E.03052
G1 X74.921 Y82.477 E.00326
G1 X74.98 Y82.33 E.00509
G1 F2280
G1 X75.035 Y82.27 E.00262
M106 S255
