; HEADER_BLOCK_START
; generated by Creality_Print V6.3.0.3420 on 2026-06-16 at 11:03:46
; total layer number: 25
; filament_density: 1.24
; filament_diameter: 1.75
; max_z_height: 5.00
; creality_uuid: 42e1d286-0c59-40d6-b498-27bb70a57064
; HEADER_BLOCK_END

; MINX = 72.00
; MINY = 71.50
; MINZ = 0.00
; MAXX = 148.00
; MAXY = 148.50
; MAXZ = 5.00

; multicolor_method = 0 
; THUMBNAIL_BLOCK_START

;
; THUMBNAIL_BLOCK_END

; THUMBNAIL_BLOCK_START

;
; THUMBNAIL_BLOCK_END

; external perimeters extrusion width = 0.42mm
; perimeters extrusion width = 0.45mm
; infill extrusion width = 0.45mm
; solid infill extrusion width = 0.42mm
; top infill extrusion width = 0.42mm
; first layer extrusion width = 0.50mm

; EXECUTABLE_BLOCK_START
EXCLUDE_OBJECT_DEFINE NAME=v2.tomagoshiRobotAssets.stl_id_0_copy_0 CENTER=110,110 POLYGON=[[72.001,86.751],[75.171,76.399],[75.381,76.003],[75.669,75.635],[76.025,75.305],[76.443,75.025],[76.911,74.801],[77.419,74.635],[77.953,74.533],[93.849,71.501],[127.101,71.501],[142.583,74.635],[143.089,74.801],[143.557,75.025],[143.975,75.305],[144.331,75.635],[144.619,76.003],[144.829,76.399],[147.999,86.751],[147.999,114.963],[144.957,127.179],[144.829,127.599],[135.999,148.499],[87.999,148.499],[75.381,127.999],[75.171,127.599],[75.043,127.179],[72.001,114.963],[72.001,86.751]]
M73 P0 R17
M106 S0
M106 P2 S0
; max_print_temp = 50,220
;TYPE:Custom
START_PRINT EXTRUDER_TEMP=220 BED_TEMP=50
T0
M204 S2000
M104 S220
G1 Z3 F600
M83
G92 E0
G1 Z1 F600
G90
G21
M83 ; use relative distances for extrusion
G1 E-.8 F2400
G1 Z.2 F30000
M106 S0
;LAYER_CHANGE
;Z:0.2
;HEIGHT:0.2
;BEFORE_LAYER_CHANGE
;0.2
G92 E0

;AFTER_LAYER_CHANGE
;0.2
;_SET_FAN_SPEED_CHANGING_LAYER
SET_VELOCITY_LIMIT ACCEL=1000 ACCEL_TO_DECEL=1000
SET_VELOCITY_LIMIT SQUARE_CORNER_VELOCITY=20
; printing object v2.tomagoshiRobotAssets.stl id:0 copy 0
EXCLUDE_OBJECT_START NAME=v2.tomagoshiRobotAssets.stl_id_0_copy_0
G1 X117.542 Y128.099 Z.6 F30000
G1 Z.2
G1 E.8 F2400
;TYPE:Inner wall
;WIDTH:0.5
G1 F3600
G1 X102.492 Y128.099 E.5434
G1 X102.492 Y131.642 E.12791
G1 X94.706 Y131.642 E.28112
G1 X94.706 Y128.099 E.12791
G1 X78.528 Y128.099 E.58413
G3 X76.86 Y127.465 I-.056 J-2.361 E.06606
G3 X76.55 Y126.707 I.81 J-.774 E.03026
G1 X76.55 Y114.106 E.45498
G1 X72.858 Y114.106 E.13329
G1 X72.858 Y108.194 E.21345
G1 X76.55 Y108.194 E.13329
G1 X76.55 Y93.518 E.5299
G1 X72.858 Y93.518 E.13329
G1 X72.858 Y87.608 E.21338
G1 X76.55 Y87.608 E.13329
G1 X76.55 Y77.291 E.3725
G3 X77.046 Y76.365 I1.202 J.048 E.03926
G3 X78.528 Y75.901 I1.445 J2.014 E.05703
G1 X94.706 Y75.901 E.58413
G1 X94.706 Y72.358 E.12791
G1 X102.492 Y72.358 E.28112
G1 X102.492 Y75.901 E.12791
G1 X118.456 Y75.901 E.5764
G1 X118.456 Y72.358 E.12791
G1 X126.244 Y72.358 E.28119
G1 X126.244 Y75.901 E.12791
G1 X141.474 Y75.901 E.54989
G3 X143.139 Y76.536 I.063 J2.336 E.06603
G3 X143.45 Y77.291 I-.822 J.78 E.03018
G1 X143.45 Y87.608 E.3725
G1 X147.142 Y87.608 E.13329
G1 X147.142 Y93.518 E.21338
G1 X143.45 Y93.518 E.13329
G1 X143.45 Y108.194 E.5299
G1 X147.142 Y108.194 E.13329
G1 X147.142 Y114.106 E.21345
G1 X143.45 Y114.106 E.13329
G1 X143.45 Y126.707 E.45498
G3 X142.954 Y127.634 I-1.19 J-.041 E.03931
G3 X141.474 Y128.099 I-1.453 J-2.035 E.05695
G1 X126.244 Y128.099 E.54989
G1 X126.244 Y131.642 E.12791
G1 X118.456 Y131.642 E.28119
G1 X118.456 Y128.099 E.12791
G1 X117.582 Y128.099 E.03156
G1 X117.999 Y128.556 F30000
;TYPE:Outer wall
G1 F3600
G1 X102.949 Y128.556 E.5434
G1 X102.949 Y132.099 E.12791
G1 X94.249 Y132.099 E.31412
G1 X94.249 Y128.556 E.12791
G1 X78.514 Y128.556 E.56814
G3 X76.523 Y127.776 I-.048 J-2.807 E.07919
G3 X76.093 Y126.73 I1.139 J-1.08 E.04179
G1 X76.093 Y114.563 E.43928
G1 X72.401 Y114.563 E.13329
G1 X72.401 Y107.737 E.24646
G1 X76.093 Y107.737 E.13329
G1 X76.093 Y93.975 E.49689
G1 X72.401 Y93.975 E.13329
G1 X72.401 Y87.151 E.24639
G1 X76.093 Y87.151 E.13329
G1 X76.093 Y77.269 E.35681
G3 X76.762 Y76.005 I1.667 J.074 E.05336
G3 X78.514 Y75.444 I1.729 J2.382 E.06753
G1 X94.249 Y75.444 E.56814
G1 X94.249 Y71.901 E.12791
G1 X102.949 Y71.901 E.31412
G1 X102.949 Y75.444 E.12791
G1 X117.999 Y75.444 E.5434
G1 X117.999 Y71.901 E.12791
G1 X126.701 Y71.901 E.31419
G1 X126.701 Y75.444 E.12791
G1 X141.488 Y75.444 E.53391
G3 X143.477 Y76.224 I.055 J2.782 E.07916
G3 X143.907 Y77.269 I-1.154 J1.087 E.0417
G1 X143.907 Y87.151 E.35681
G1 X147.599 Y87.151 E.13329
G1 X147.599 Y93.975 E.24639
G1 X143.907 Y93.975 E.13329
G1 X143.907 Y107.737 E.49689
G1 X147.599 Y107.737 E.13329
G1 X147.599 Y114.563 E.24646
G1 X143.907 Y114.563 E.13329
G1 X143.907 Y126.73 E.43928
G3 X143.237 Y127.994 I-1.654 J-.067 E.05345
G3 X141.488 Y128.556 I-1.737 J-2.404 E.06741
G1 X126.701 Y128.556 E.53391
G1 X126.701 Y132.099 E.12791
G1 X117.999 Y132.099 E.31419
G1 X117.999 Y128.596 E.12647
G1 E-.8 F2400
;WIPE_START
G1 F3600
G1 X115.999 Y128.591
;WIPE_END
M73 P1 R17
G1 X119.579 Y121.85 Z.6 F30000
G1 X143.302 Y77.185 Z.6
G1 Z.2
G1 E.8 F2400
;TYPE:Bottom surface
;WIDTH:0.502084
G1 F3600
G2 X142.551 Y76.507 I-3.083 J2.661 E.0368
G2 X141.728 Y76.26 I-.962 J1.712 E.0314
G1 X143.107 Y77.64 E.07075
G1 X143.107 Y78.289 E.02355
G1 X141.062 Y76.244 E.10492
G1 X140.413 Y76.244 E.02355
G1 X143.107 Y78.938 E.13823
G1 X143.107 Y79.588 E.02355
G1 X139.763 Y76.244 E.17154
G1 X139.114 Y76.244 E.02355
G1 X143.107 Y80.237 E.20485
G1 X143.107 Y80.886 E.02355
G1 X138.465 Y76.244 E.23815
G1 X137.815 Y76.244 E.02355
G1 X143.107 Y81.536 E.27146
G1 X143.107 Y82.185 E.02355
G1 X137.166 Y76.244 E.30477
G1 X136.516 Y76.244 E.02355
G1 X143.107 Y82.834 E.33808
G1 X143.107 Y83.484 E.02355
G1 X135.867 Y76.244 E.37139
G1 X135.218 Y76.244 E.02355
G1 X143.107 Y84.133 E.4047
G1 X143.107 Y84.783 E.02355
G1 X134.568 Y76.244 E.438
G1 X133.919 Y76.244 E.02355
G1 X143.107 Y85.432 E.47131
G1 X143.107 Y86.081 E.02355
G1 X133.27 Y76.244 E.50462
G1 X132.62 Y76.244 E.02355
G1 X143.313 Y86.936 E.54848
G1 E-.8 F2400
;WIPE_START
G1 F3600
G1 X141.899 Y85.522
;WIPE_END
G1 X147.005 Y88.68 Z.6 F30000
G1 Z.2
G1 E.8 F2400
G1 F3600
G1 X146.276 Y87.951 E.0374
G1 X145.626 Y87.951 E.02355
G1 X146.799 Y89.124 E.06016
G1 X146.799 Y89.773 E.02355
G1 X144.977 Y87.951 E.09347
G1 X144.328 Y87.951 E.02355
G1 X146.799 Y90.422 E.12677
G1 X146.799 Y91.072 E.02355
G1 X143.678 Y87.951 E.16008
G1 X143.107 Y87.951 E.02071
G1 X143.107 Y87.38 E.02071
G1 X131.971 Y76.244 E.57124
G1 X131.322 Y76.244 E.02355
G1 X146.799 Y91.721 E.79391
G1 X146.799 Y92.37 E.02355
G1 X130.672 Y76.244 E.82722
G1 X130.023 Y76.244 E.02355
G1 X146.799 Y93.02 E.86053
G1 X146.799 Y93.175 E.00563
G1 X146.305 Y93.175 E.01792
G1 X129.374 Y76.244 E.8685
G1 X128.724 Y76.244 E.02355
G1 X145.656 Y93.175 E.8685
G1 X145.006 Y93.175 E.02355
G1 X128.075 Y76.244 E.8685
G1 X127.425 Y76.244 E.02355
G1 X144.357 Y93.175 E.8685
G1 X143.708 Y93.175 E.02355
G1 X126.57 Y76.038 E.87905
G1 E-.8 F2400
;WIPE_START
G1 F3600
G1 X127.985 Y77.452
;WIPE_END
G1 X126.107 Y72.977 Z.6 F30000
G1 Z.2
G1 E.8 F2400
G1 F3600
G1 X125.831 Y72.701 E.01415
G1 X125.182 Y72.701 E.02355
G1 X125.901 Y73.42 E.03691
G1 X125.901 Y74.07 E.02355
G1 X124.532 Y72.701 E.07022
G1 X123.883 Y72.701 E.02355
G1 X125.901 Y74.719 E.10353
G1 X125.901 Y75.369 E.02355
G1 X123.233 Y72.701 E.13684
G1 X122.584 Y72.701 E.02355
G1 X143.107 Y93.224 E1.05273
G1 X143.107 Y93.874 E.02355
G1 X121.935 Y72.701 E1.08604
G1 X121.285 Y72.701 E.02355
G1 X143.107 Y94.523 E1.11935
G1 X143.107 Y95.172 E.02355
G1 X120.636 Y72.701 E1.15266
G1 X119.987 Y72.701 E.02355
G1 X143.107 Y95.822 E1.18597
G1 X143.107 Y96.471 E.02355
M73 P2 R17
G1 X119.337 Y72.701 E1.21927
G1 X118.799 Y72.701 E.01953
G1 X118.799 Y72.812 E.00402
G1 X143.107 Y97.12 E1.24689
G1 X143.107 Y97.77 E.02355
G1 X118.799 Y73.461 E1.24689
G1 X118.799 Y74.11 E.02355
G1 X143.107 Y98.419 E1.24689
G1 X143.107 Y99.068 E.02355
G1 X118.799 Y74.76 E1.24689
G1 X118.799 Y75.409 E.02355
G1 X143.107 Y99.718 E1.24689
G1 X143.107 Y100.367 E.02355
G1 X118.799 Y76.059 E1.24689
G1 X118.799 Y76.244 E.00671
G1 X118.334 Y76.244 E.01684
G1 X143.107 Y101.016 E1.27071
G1 X143.107 Y101.666 E.02355
G1 X117.685 Y76.244 E1.30402
G1 X117.036 Y76.244 E.02355
G1 X143.107 Y102.315 E1.33733
G1 X143.107 Y102.965 E.02355
G1 X116.386 Y76.244 E1.37064
G1 X115.737 Y76.244 E.02355
G1 X143.107 Y103.614 E1.40395
G1 X143.107 Y104.263 E.02355
G1 X115.088 Y76.244 E1.43726
G1 X114.438 Y76.244 E.02355
G1 X143.107 Y104.913 E1.47056
G1 X143.107 Y105.562 E.02355
G1 X113.789 Y76.244 E1.50387
G1 X113.14 Y76.244 E.02355
G1 X143.107 Y106.211 E1.53718
G1 X143.107 Y106.861 E.02355
G1 X112.49 Y76.244 E1.57049
G1 X111.841 Y76.244 E.02355
G1 X143.313 Y107.716 E1.61435
G1 E-.8 F2400
;WIPE_START
G1 F3600
G1 X141.899 Y106.301
;WIPE_END
G1 X146.526 Y108.331 Z.6 F30000
G1 Z.2
G1 E.8 F2400
G1 F3600
G1 X146.799 Y108.604 E.01401
G1 X146.799 Y109.254 E.02355
G1 X146.082 Y108.537 E.03677
G1 X145.433 Y108.537 E.02355
G1 X146.799 Y109.903 E.07008
M73 P3 R17
G1 X146.799 Y110.552 E.02355
G1 X144.784 Y108.537 E.10339
G1 X144.134 Y108.537 E.02355
G1 X146.799 Y111.202 E.13669
G1 X146.799 Y111.851 E.02355
G1 X111.192 Y76.244 E1.82647
G1 X110.542 Y76.244 E.02355
G1 X146.799 Y112.5 E1.85978
G1 X146.799 Y113.15 E.02355
G1 X109.893 Y76.244 E1.89309
G1 X109.243 Y76.244 E.02355
G1 X146.763 Y113.763 E1.92455
G1 X146.114 Y113.763 E.02355
G1 X108.594 Y76.244 E1.92455
G1 X107.945 Y76.244 E.02355
G1 X145.464 Y113.763 E1.92455
G1 X144.815 Y113.763 E.02355
G1 X107.295 Y76.244 E1.92455
G1 X106.646 Y76.244 E.02355
G1 X144.166 Y113.763 E1.92455
G1 X143.516 Y113.763 E.02355
G1 X105.997 Y76.244 E1.92455
G1 X105.347 Y76.244 E.02355
G1 X143.107 Y114.004 E1.93688
G1 X143.107 Y114.653 E.02355
G1 X104.698 Y76.244 E1.97019
G1 X104.049 Y76.244 E.02355
G1 X143.107 Y115.302 E2.0035
G1 X143.107 Y115.952 E.02355
G1 X103.194 Y76.038 E2.04736
G1 E-.8 F2400
;WIPE_START
G1 F3600
G1 X104.608 Y77.452
;WIPE_END
G1 X102.355 Y73.251 Z.6 F30000
G1 Z.2
G1 E.8 F2400
G1 F3600
G1 X101.805 Y72.701 E.02822
G1 X101.155 Y72.701 E.02355
G1 X102.149 Y73.695 E.05098
G1 X102.149 Y74.344 E.02355
G1 X100.506 Y72.701 E.08428
M73 P4 R17
G1 X99.857 Y72.701 E.02355
G1 X102.355 Y75.199 E.12814
G1 E-.8 F2400
;WIPE_START
G1 F3600
G1 X100.941 Y73.785
;WIPE_END
G1 X99.002 Y72.495 Z.6 F30000
G1 Z.2
G1 E.8 F2400
G1 F3600
G1 X102.149 Y75.643 E.16145
G1 X102.149 Y76.244 E.02179
G1 X102.75 Y76.244 E.02179
G1 X143.107 Y116.601 E2.07011
G1 X143.107 Y117.25 E.02355
M73 P4 R16
G1 X98.558 Y72.701 E2.28514
G1 X97.909 Y72.701 E.02355
G1 X143.107 Y117.9 E2.31845
G1 X143.107 Y118.549 E.02355
G1 X97.259 Y72.701 E2.35176
G1 X96.61 Y72.701 E.02355
G1 X143.107 Y119.198 E2.38507
G1 X143.107 Y119.848 E.02355
G1 X95.96 Y72.701 E2.41838
G1 X95.311 Y72.701 E.02355
G1 X143.107 Y120.497 E2.45168
G1 X143.107 Y121.146 E.02355
G1 X95.049 Y73.088 E2.46514
G1 X95.049 Y73.737 E.02355
G1 X143.107 Y121.796 E2.46514
G1 X143.107 Y122.445 E.02355
G1 X95.049 Y74.387 E2.46514
G1 X95.049 Y75.036 E.02355
G1 X143.107 Y123.095 E2.46514
G1 X143.107 Y123.744 E.02355
G1 X95.049 Y75.685 E2.46514
G1 X95.049 Y76.244 E.02024
G1 X94.958 Y76.244 E.00331
G1 X143.107 Y124.393 E2.46981
G1 X143.107 Y125.043 E.02355
G1 X94.308 Y76.244 E2.50312
M73 P5 R16
G1 X93.659 Y76.244 E.02355
G1 X143.107 Y125.692 E2.53643
G1 X143.107 Y126.341 E.02355
G1 X93.01 Y76.244 E2.56974
G1 X92.36 Y76.244 E.02355
G1 X143.064 Y126.947 E2.60083
G3 X142.788 Y127.321 I-.802 J-.304 E.01705
G1 X91.711 Y76.244 E2.61998
G1 X91.062 Y76.244 E.02355
G1 X142.388 Y127.57 E2.63275
G3 X141.886 Y127.717 I-.879 J-2.06 E.01901
G1 X90.412 Y76.244 E2.64032
G1 X89.763 Y76.244 E.02355
G1 X141.276 Y127.756 E2.64233
G1 X140.626 Y127.756 E.02355
G1 X89.113 Y76.244 E2.64233
G1 X88.464 Y76.244 E.02355
G1 X139.977 Y127.756 E2.64233
G1 X139.328 Y127.756 E.02355
G1 X87.815 Y76.244 E2.64233
G1 X87.165 Y76.244 E.02355
M73 P6 R16
G1 X138.678 Y127.756 E2.64233
G1 X138.029 Y127.756 E.02355
G1 X86.516 Y76.244 E2.64233
G1 X85.867 Y76.244 E.02355
G1 X137.38 Y127.756 E2.64233
G1 X136.73 Y127.756 E.02355
G1 X85.217 Y76.244 E2.64233
G1 X84.568 Y76.244 E.02355
G1 X136.081 Y127.756 E2.64233
G1 X135.432 Y127.756 E.02355
G1 X83.919 Y76.244 E2.64233
G1 X83.269 Y76.244 E.02355
G1 X134.782 Y127.756 E2.64233
G1 X134.133 Y127.756 E.02355
G1 X82.62 Y76.244 E2.64233
G1 X81.971 Y76.244 E.02355
G1 X133.483 Y127.756 E2.64233
M73 P7 R16
G1 X132.834 Y127.756 E.02355
G1 X81.321 Y76.244 E2.64233
G1 X80.672 Y76.244 E.02355
G1 X132.185 Y127.756 E2.64233
G1 X131.535 Y127.756 E.02355
G1 X80.022 Y76.244 E2.64233
G1 X79.373 Y76.244 E.02355
G1 X130.886 Y127.756 E2.64233
G1 X130.237 Y127.756 E.02355
G1 X78.724 Y76.244 E2.64233
G2 X78.113 Y76.282 I-.058 J3.939 E.02222
G1 X129.587 Y127.756 E2.64035
G1 X128.938 Y127.756 E.02355
G1 X77.611 Y76.429 E2.63281
G2 X77.211 Y76.679 I.67 J1.518 E.01715
G1 X128.289 Y127.756 E2.62
M73 P8 R16
G1 X127.639 Y127.756 E.02355
G1 X76.936 Y77.053 E2.60079
G2 X76.893 Y77.659 I1.606 J.42 E.02216
G1 X126.99 Y127.756 E2.56972
G1 X126.341 Y127.756 E.02355
G1 X76.893 Y78.309 E2.53641
G1 X76.893 Y78.958 E.02355
G1 X125.901 Y127.966 E2.51387
G1 X125.901 Y128.616 E.02355
G1 X76.893 Y79.607 E2.51387
G1 X76.893 Y80.257 E.02355
G1 X125.901 Y129.265 E2.51387
G1 X125.901 Y129.914 E.02355
G1 X76.893 Y80.906 E2.51387
G1 X76.893 Y81.555 E.02355
G1 X125.901 Y130.564 E2.51387
G1 X125.901 Y131.213 E.02355
G1 X76.893 Y82.205 E2.51387
M73 P9 R16
G1 X76.893 Y82.854 E.02355
G1 X125.338 Y131.299 E2.48497
G1 X124.688 Y131.299 E.02355
G1 X76.893 Y83.503 E2.45166
G1 X76.893 Y84.153 E.02355
G1 X124.039 Y131.299 E2.41835
G1 X123.39 Y131.299 E.02355
G1 X76.893 Y84.802 E2.38504
G1 X76.893 Y85.451 E.02355
G1 X122.74 Y131.299 E2.35173
G1 X122.091 Y131.299 E.02355
G1 X76.893 Y86.101 E2.31843
G1 X76.893 Y86.75 E.02355
G1 X117.899 Y127.756 E2.1034
G1 X117.25 Y127.756 E.02355
M73 P10 R16
G1 X76.893 Y87.399 E2.07009
G1 X76.893 Y87.951 E.02
G1 X76.795 Y87.951 E.00355
G1 X116.6 Y127.756 E2.04181
G1 X115.951 Y127.756 E.02355
G1 X76.145 Y87.951 E2.04181
M73 P10 R15
G1 X75.496 Y87.951 E.02355
G1 X115.302 Y127.756 E2.04181
G1 X114.652 Y127.756 E.02355
G1 X74.847 Y87.951 E2.04181
G1 X74.197 Y87.951 E.02355
G1 X114.003 Y127.756 E2.04181
G1 X113.353 Y127.756 E.02355
G1 X73.548 Y87.951 E2.04181
G1 X73.201 Y87.951 E.01259
G1 X73.201 Y88.253 E.01097
G1 X112.704 Y127.756 E2.0263
G1 X112.055 Y127.756 E.02355
M73 P11 R15
G1 X73.201 Y88.903 E1.99299
G1 X73.201 Y89.552 E.02355
G1 X111.405 Y127.756 E1.95968
G1 X110.756 Y127.756 E.02355
G1 X76.893 Y93.893 E1.73701
G1 X76.893 Y94.542 E.02355
G1 X110.107 Y127.756 E1.7037
G1 X109.457 Y127.756 E.02355
G1 X76.893 Y95.192 E1.67039
G1 X76.893 Y95.841 E.02355
G1 X108.808 Y127.756 E1.63708
G1 X108.159 Y127.756 E.02355
G1 X76.893 Y96.49 E1.60377
G1 X76.893 Y97.14 E.02355
G1 X107.509 Y127.756 E1.57046
G1 X106.86 Y127.756 E.02355
G1 X76.893 Y97.789 E1.53716
G1 X76.893 Y98.439 E.02355
G1 X106.211 Y127.756 E1.50385
M73 P12 R15
G1 X105.561 Y127.756 E.02355
G1 X76.893 Y99.088 E1.47054
G1 X76.893 Y99.737 E.02355
G1 X104.912 Y127.756 E1.43723
G1 X104.262 Y127.756 E.02355
G1 X76.893 Y100.387 E1.40392
G1 X76.893 Y101.036 E.02355
G1 X103.613 Y127.756 E1.37061
G1 X102.964 Y127.756 E.02355
G1 X76.893 Y101.685 E1.33731
G1 X76.893 Y102.335 E.02355
G1 X102.314 Y127.756 E1.304
G1 X102.149 Y127.756 E.00599
G1 X102.149 Y128.241 E.01756
G1 X76.893 Y102.984 E1.29552
G1 X76.893 Y103.633 E.02355
G1 X102.149 Y128.89 E1.29552
G1 X102.149 Y129.539 E.02355
G1 X76.893 Y104.283 E1.29552
G1 X76.893 Y104.932 E.02355
G1 X102.149 Y130.189 E1.29552
G1 X102.149 Y130.838 E.02355
G1 X76.893 Y105.581 E1.29552
G1 X76.893 Y106.231 E.02355
G1 X101.961 Y131.299 E1.28587
M73 P13 R15
G1 X101.312 Y131.299 E.02355
G1 X76.893 Y106.88 E1.25256
G1 X76.893 Y107.53 E.02355
G1 X100.662 Y131.299 E1.21925
G1 X100.013 Y131.299 E.02355
G1 X76.893 Y108.179 E1.18594
G1 X76.893 Y108.537 E.01298
G1 X76.601 Y108.537 E.01057
G1 X99.364 Y131.299 E1.16758
G1 X98.714 Y131.299 E.02355
G1 X75.952 Y108.537 E1.16758
G1 X75.303 Y108.537 E.02355
G1 X94.522 Y127.756 E.98586
G1 X95.049 Y127.756 E.01911
G1 X95.049 Y128.283 E.01911
G1 X98.065 Y131.299 E.1547
G1 X97.415 Y131.299 E.02355
G1 X95.049 Y128.933 E.12139
G1 X95.049 Y129.582 E.02355
G1 X96.766 Y131.299 E.08808
