; HEADER_BLOCK_START
; generated by Creality_Print V6.3.0.3420 on 2026-06-15 at 23:01:38
; total layer number: 350
; filament_density: 1.24
; filament_diameter: 1.75
; max_z_height: 70.00
; creality_uuid: 1b43dee1-ed86-474c-a016-c61c2d34b49b
; HEADER_BLOCK_END

; MINX = 30.50
; MINY = 43.50
; MINZ = 0.00
; MAXX = 189.50
; MAXY = 176.50
; MAXZ = 70.00

; multicolor_method = 0 
; THUMBNAIL_BLOCK_START

;
; THUMBNAIL_BLOCK_END

; THUMBNAIL_BLOCK_START

;
; THUMBNAIL_BLOCK_END

; external perimeters extrusion width = 0.42mm
; perimeters extrusion width = 0.45mm
; infill extrusion width = 0.45mm
; solid infill extrusion width = 0.42mm
; top infill extrusion width = 0.42mm
; first layer extrusion width = 0.50mm

; EXECUTABLE_BLOCK_START
EXCLUDE_OBJECT_DEFINE NAME=v2.tomagoshiRobot.stl_id_0_copy_0 CENTER=110,110 POLYGON=[[30.5,46.55],[30.544,46.074],[30.614,45.84],[30.684,45.608],[30.798,45.386],[30.912,45.166],[31.068,44.962],[31.226,44.76],[31.42,44.576],[31.612,44.394],[32.066,44.082],[32.574,43.834],[32.848,43.742],[33.124,43.65],[33.704,43.538],[34.002,43.52],[34.3,43.502],[68.498,43.5],[168.598,43.502],[184.08,46.636],[184.588,46.8],[185.056,47.026],[185.474,47.306],[185.83,47.634],[186.118,48.004],[186.328,48.402],[189.5,58.75],[189.5,86.964],[186.456,99.182],[186.328,99.602],[186.118,100],[185.83,100.368],[125.498,176.5],[103.5,176.5],[31.226,103.244],[31.068,103.04],[30.912,102.836],[30.684,102.394],[30.544,101.928],[30.5,101.45],[30.5,46.55]]
M73 P0 R93
M106 S0
M106 P2 S0
; max_print_temp = 50,220
;TYPE:Custom
START_PRINT EXTRUDER_TEMP=220 BED_TEMP=50
T0
M204 S2000
M104 S220
G1 Z3 F600
M83
G92 E0
G1 Z1 F600
G90
G21
M83 ; use relative distances for extrusion
G1 E-.8 F2400
G1 Z.2 F30000
M106 S0
;LAYER_CHANGE
;Z:0.2
;HEIGHT:0.2
;BEFORE_LAYER_CHANGE
;0.2
G92 E0

;AFTER_LAYER_CHANGE
;0.2
;_SET_FAN_SPEED_CHANGING_LAYER
SET_VELOCITY_LIMIT ACCEL=1000 ACCEL_TO_DECEL=1000
SET_VELOCITY_LIMIT SQUARE_CORNER_VELOCITY=20
; printing object v2.tomagoshiRobot.stl id:0 copy 0
EXCLUDE_OBJECT_START NAME=v2.tomagoshiRobot.stl_id_0_copy_0
G1 X118.047 Y79.279 Z.6 F30000
G1 Z.2
G1 E.8 F2400
;TYPE:Inner wall
;WIDTH:0.5
G1 F3600
G1 X118.047 Y65.519 E.49682
G1 X114.357 Y65.519 E.13322
G1 X114.357 Y59.607 E.21345
G1 X118.047 Y59.607 E.13322
G1 X118.047 Y49.294 E.37236
G3 X118.544 Y48.367 I1.214 J.054 E.03929
G3 X120.025 Y47.902 I1.453 J2.035 E.05698
G1 X136.205 Y47.902 E.58419
G1 X136.205 Y44.359 E.12791
G1 X143.991 Y44.359 E.28112
G1 X143.991 Y47.902 E.12791
G1 X159.955 Y47.902 E.5764
G1 X159.955 Y44.359 E.12791
G1 X167.741 Y44.359 E.28112
G1 X167.741 Y47.902 E.12791
G1 X182.973 Y47.902 E.54997
G3 X184.454 Y48.367 I.03 J2.495 E.05699
G3 X184.949 Y49.292 I-.702 J.971 E.03921
G1 X184.949 Y59.607 E.37244
G1 X188.643 Y59.607 E.13336
G1 X188.643 Y65.519 E.21345
G1 X184.949 Y65.519 E.13336
G1 X184.949 Y80.193 E.52983
G1 X188.643 Y80.193 E.13336
G1 X188.643 Y86.107 E.21353
G1 X184.949 Y86.107 E.13336
G1 X184.949 Y98.707 E.45494
G3 X184.453 Y99.636 I-1.197 J-.043 E.03938
G3 X182.973 Y100.1 I-1.455 J-2.047 E.05693
G1 X167.741 Y100.1 E.54997
G1 X167.741 Y103.643 E.12791
G1 X159.955 Y103.643 E.28112
G1 X159.955 Y100.1 E.12791
G1 X143.991 Y100.1 E.5764
G1 X143.991 Y103.643 E.12791
G1 X136.205 Y103.643 E.28112
G1 X136.205 Y100.1 E.12791
G1 X120.025 Y100.1 E.58419
G3 X118.538 Y99.629 I-.026 J-2.502 E.05728
G3 X118.047 Y98.706 I.718 J-.974 E.03905
G1 X118.047 Y86.107 E.4549
G1 X114.357 Y86.107 E.13322
G1 X114.357 Y80.193 E.21353
G1 X118.047 Y80.193 E.13322
G1 X118.047 Y79.319 E.03156
G1 X117.59 Y79.736 F30000
;TYPE:Outer wall
G1 F3600
G1 X117.59 Y65.976 E.49682
G1 X113.9 Y65.976 E.13322
G1 X113.9 Y59.15 E.24646
G1 X117.59 Y59.15 E.13322
G1 X117.59 Y49.271 E.35671
G3 X118.261 Y48.006 I1.68 J.082 E.05338
G3 X120.011 Y47.445 I1.737 J2.404 E.06746
G1 X135.748 Y47.445 E.56821
G1 X135.748 Y43.902 E.12791
G1 X144.448 Y43.902 E.31412
G1 X144.448 Y47.445 E.12791
G1 X159.498 Y47.445 E.5434
G1 X159.498 Y43.902 E.12791
G1 X168.198 Y43.902 E.31412
G1 X168.198 Y47.445 E.12791
G1 X182.987 Y47.445 E.53398
G3 X184.737 Y48.007 I.015 J2.961 E.06747
G3 X185.406 Y49.27 I-.994 J1.335 E.05334
G1 X185.406 Y59.15 E.35675
G1 X189.1 Y59.15 E.13336
G1 X189.1 Y65.976 E.24646
G1 X185.406 Y65.976 E.13336
G1 X185.406 Y79.736 E.49682
G1 X189.1 Y79.736 E.13336
G1 X189.1 Y86.564 E.24653
G1 X185.406 Y86.564 E.13336
G1 X185.406 Y98.73 E.43927
G3 X184.737 Y99.996 I-1.662 J-.069 E.05345
G3 X182.987 Y100.557 I-1.74 J-2.416 E.06743
G1 X168.198 Y100.557 E.53398
G1 X168.198 Y104.1 E.12791
G1 X159.498 Y104.1 E.31412
G1 X159.498 Y100.557 E.12791
G1 X144.448 Y100.557 E.5434
G1 X144.448 Y104.1 E.12791
G1 X135.748 Y104.1 E.31412
G1 X135.748 Y100.557 E.12791
G1 X120.011 Y100.557 E.56821
G3 X118.253 Y99.988 I-.01 J-2.968 E.06782
G3 X117.59 Y98.729 I1.011 J-1.337 E.05307
G1 X117.59 Y86.564 E.43924
G1 X113.9 Y86.564 E.13322
G1 X113.9 Y79.736 E.24653
G1 X117.55 Y79.736 E.13178
G1 E-.8 F2400
;WIPE_START
G1 F3600
G1 X117.556 Y77.736
;WIPE_END
G1 X124.581 Y74.753 Z.6 F30000
G1 X184.801 Y49.185 Z.6
G1 Z.2
G1 E.8 F2400
;TYPE:Bottom surface
;WIDTH:0.502081
G1 F3600
G2 X184.05 Y48.509 I-3.018 J2.595 E.03678
G2 X183.228 Y48.261 I-.96 J1.7 E.03139
G1 X184.606 Y49.64 E.07072
G1 X184.606 Y50.289 E.02355
G1 X182.561 Y48.245 E.10489
G1 X181.912 Y48.245 E.02355
G1 X184.606 Y50.939 E.1382
G1 X184.606 Y51.588 E.02355
G1 X181.263 Y48.245 E.17151
G1 X180.613 Y48.245 E.02355
G1 X184.606 Y52.238 E.20482
G1 X184.606 Y52.887 E.02355
G1 X179.964 Y48.245 E.23813
G1 X179.315 Y48.245 E.02355
G1 X184.606 Y53.536 E.27143
G1 X184.606 Y54.186 E.02355
G1 X178.665 Y48.245 E.30474
G1 X178.016 Y48.245 E.02355
G1 X184.606 Y54.835 E.33805
G1 X184.606 Y55.484 E.02355
G1 X177.367 Y48.245 E.37136
G1 X176.717 Y48.245 E.02355
G1 X184.606 Y56.134 E.40467
G1 X184.606 Y56.783 E.02355
G1 X176.068 Y48.245 E.43797
G1 X175.419 Y48.245 E.02355
G1 X184.606 Y57.432 E.47128
G1 X184.606 Y58.082 E.02355
G1 X174.769 Y48.245 E.50459
G1 X174.12 Y48.245 E.02355
G1 X184.812 Y58.937 E.54845
G1 E-.8 F2400
;WIPE_START
G1 F3600
G1 X183.398 Y57.523
;WIPE_END
G1 X188.506 Y60.682 Z.6 F30000
G1 Z.2
G1 E.8 F2400
G1 F3600
G1 X187.773 Y59.95 E.03757
G1 X187.124 Y59.95 E.02355
G1 X188.3 Y61.126 E.06033
G1 X188.3 Y61.775 E.02355
G1 X186.475 Y59.95 E.09364
G1 X185.825 Y59.95 E.02355
G1 X188.3 Y62.425 E.12695
G1 X188.3 Y63.074 E.02355
G1 X185.176 Y59.95 E.16025
G1 X184.606 Y59.95 E.02066
G1 X184.606 Y59.38 E.02066
G1 X173.471 Y48.245 E.57121
G1 X172.821 Y48.245 E.02355
G1 X188.3 Y63.723 E.79398
G1 X188.3 Y64.373 E.02355
G1 X172.172 Y48.245 E.82729
G1 X171.522 Y48.245 E.02355
G1 X188.3 Y65.022 E.86059
G1 X188.3 Y65.176 E.00559
G1 X187.805 Y65.176 E.01797
G1 X170.873 Y48.245 E.86849
G1 X170.224 Y48.245 E.02355
G1 X187.155 Y65.176 E.86849
G1 X186.506 Y65.176 E.02355
G1 X169.574 Y48.245 E.86849
G1 X168.925 Y48.245 E.02355
G1 X185.857 Y65.176 E.86849
G1 X185.207 Y65.176 E.02355
G1 X168.07 Y48.039 E.87904
G1 E-.8 F2400
;WIPE_START
G1 F3600
G1 X169.484 Y49.453
;WIPE_END
G1 X167.604 Y44.975 Z.6 F30000
G1 Z.2
G1 E.8 F2400
G1 F3600
G1 X167.331 Y44.702 E.01402
G1 X166.681 Y44.702 E.02355
G1 X167.398 Y45.419 E.03678
G1 X167.398 Y46.068 E.02355
G1 X166.032 Y44.702 E.07008
G1 X165.382 Y44.702 E.02355
G1 X167.398 Y46.718 E.10339
G1 X167.398 Y47.367 E.02355
G1 X164.733 Y44.702 E.1367
G1 X164.084 Y44.702 E.02355
G1 X184.606 Y65.225 E1.05269
G1 X184.606 Y65.874 E.02355
G1 X163.434 Y44.702 E1.086
G1 X162.785 Y44.702 E.02355
G1 X184.606 Y66.523 E1.11931
G1 X184.606 Y67.173 E.02355
G1 X162.136 Y44.702 E1.15262
G1 X161.486 Y44.702 E.02355
G1 X184.606 Y67.822 E1.18593
G1 X184.606 Y68.471 E.02355
G1 X160.837 Y44.702 E1.21923
G1 X160.298 Y44.702 E.01955
G1 X160.298 Y44.812 E.004
G1 X184.606 Y69.121 E1.24689
G1 X184.606 Y69.77 E.02355
G1 X160.298 Y45.461 E1.24689
G1 X160.298 Y46.111 E.02355
G1 X184.606 Y70.419 E1.24689
G1 X184.606 Y71.069 E.02355
G1 X160.298 Y46.76 E1.24689
G1 X160.298 Y47.41 E.02355
G1 X184.606 Y71.718 E1.24689
G1 X184.606 Y72.367 E.02355
G1 X160.298 Y48.059 E1.24689
G1 X160.298 Y48.245 E.00673
G1 X159.834 Y48.245 E.01682
G1 X184.606 Y73.017 E1.27067
G1 X184.606 Y73.666 E.02355
G1 X159.185 Y48.245 E1.30398
G1 X158.535 Y48.245 E.02355
G1 X184.606 Y74.315 E1.33729
G1 X184.606 Y74.965 E.02355
G1 X157.886 Y48.245 E1.3706
G1 X157.237 Y48.245 E.02355
G1 X184.606 Y75.614 E1.4039
G1 X184.606 Y76.264 E.02355
G1 X156.587 Y48.245 E1.43721
G1 X155.938 Y48.245 E.02355
G1 X184.606 Y76.913 E1.47052
G1 X184.606 Y77.562 E.02355
G1 X155.289 Y48.245 E1.50383
G1 X154.639 Y48.245 E.02355
G1 X184.606 Y78.212 E1.53714
G1 X184.606 Y78.861 E.02355
G1 X153.99 Y48.245 E1.57044
G1 X153.341 Y48.245 E.02355
G1 X184.812 Y79.716 E1.6143
G1 E-.8 F2400
;WIPE_START
G1 F3600
G1 X183.398 Y78.302
;WIPE_END
G1 X188.024 Y80.33 Z.6 F30000
G1 Z.2
G1 E.8 F2400
G1 F3600
M73 P0 R92
G1 X188.3 Y80.607 E.01418
G1 X188.3 Y81.256 E.02355
G1 X187.58 Y80.536 E.03694
G1 X186.931 Y80.536 E.02355
G1 X188.3 Y81.905 E.07024
G1 X188.3 Y82.555 E.02355
G1 X186.281 Y80.536 E.10355
G1 X185.632 Y80.536 E.02355
G1 X188.3 Y83.204 E.13686
G1 X188.3 Y83.853 E.02355
G1 X152.691 Y48.245 E1.82652
G1 X152.042 Y48.245 E.02355
G1 X188.3 Y84.503 E1.85983
G1 X188.3 Y85.152 E.02355
G1 X151.393 Y48.245 E1.89314
G1 X150.743 Y48.245 E.02355
G1 X188.263 Y85.764 E1.92454
G1 X187.614 Y85.764 E.02355
G1 X150.094 Y48.245 E1.92454
G1 X149.445 Y48.245 E.02355
G1 X186.964 Y85.764 E1.92454
G1 X186.315 Y85.764 E.02355
G1 X148.795 Y48.245 E1.92454
G1 X148.146 Y48.245 E.02355
G1 X185.665 Y85.764 E1.92454
G1 X185.016 Y85.764 E.02355
G1 X147.496 Y48.245 E1.92454
G1 X146.847 Y48.245 E.02355
G1 X184.606 Y86.004 E1.93683
G1 X184.606 Y86.653 E.02355
G1 X146.198 Y48.245 E1.97014
G1 X145.548 Y48.245 E.02355
G1 X184.606 Y87.303 E2.00345
G1 X184.606 Y87.952 E.02355
G1 X144.693 Y48.039 E2.0473
G1 E-.8 F2400
;WIPE_START
G1 F3600
G1 X146.108 Y49.453
;WIPE_END
G1 X143.854 Y45.251 Z.6 F30000
G1 Z.2
G1 E.8 F2400
G1 F3600
G1 X143.304 Y44.702 E.02818
G1 X142.655 Y44.702 E.02355
G1 X143.648 Y45.695 E.05093
G1 X143.648 Y46.344 E.02355
G1 X142.006 Y44.702 E.08424
G1 X141.356 Y44.702 E.02355
G1 X143.854 Y47.199 E.1281
G1 E-.8 F2400
;WIPE_START
G1 F3600
G1 X142.44 Y45.785
;WIPE_END
G1 X140.501 Y44.496 Z.6 F30000
G1 Z.2
G1 E.8 F2400
G1 F3600
G1 X143.648 Y47.643 E.16141
G1 X143.648 Y48.245 E.02182
G1 X144.25 Y48.245 E.02182
G1 X184.606 Y88.601 E2.07006
G1 X184.606 Y89.251 E.02355
G1 X140.058 Y44.702 E2.28509
G1 X139.408 Y44.702 E.02355
G1 X184.606 Y89.9 E2.31839
G1 X184.606 Y90.549 E.02355
G1 X138.759 Y44.702 E2.3517
G1 X138.11 Y44.702 E.02355
G1 X184.606 Y91.199 E2.38501
G1 X184.606 Y91.848 E.02355
G1 X137.46 Y44.702 E2.41832
G1 X136.811 Y44.702 E.02355
G1 X184.606 Y92.497 E2.45163
G1 X184.606 Y93.147 E.02355
G1 X136.548 Y45.088 E2.46512
G1 X136.548 Y45.737 E.02355
G1 X184.606 Y93.796 E2.46512
G1 X184.606 Y94.445 E.02355
G1 X136.548 Y46.387 E2.46512
G1 X136.548 Y47.036 E.02355
G1 X184.606 Y95.095 E2.46512
G1 X184.606 Y95.744 E.02355
G1 X136.548 Y47.686 E2.46512
G1 X136.548 Y48.245 E.02027
G1 X136.458 Y48.245 E.00328
G1 X184.606 Y96.393 E2.46976
G1 X184.606 Y97.043 E.02355
G1 X135.808 Y48.245 E2.50307
G1 X135.159 Y48.245 E.02355
G1 X184.606 Y97.692 E2.53637
G1 X184.606 Y98.341 E.02355
G1 X134.509 Y48.245 E2.56968
G1 X133.86 Y48.245 E.02355
G1 X184.563 Y98.947 E2.60076
G3 X184.288 Y99.322 I-.822 J-.316 E.01705
G1 X133.211 Y48.245 E2.61996
G1 X132.561 Y48.245 E.02355
M73 P1 R92
G1 X183.888 Y99.571 E2.63273
G3 X183.386 Y99.718 I-.886 J-2.087 E.01901
G1 X131.912 Y48.245 E2.6403
G1 X131.263 Y48.245 E.02355
G1 X182.776 Y99.757 E2.64231
G1 X182.126 Y99.757 E.02355
G1 X130.613 Y48.245 E2.64231
G1 X129.964 Y48.245 E.02355
G1 X181.477 Y99.757 E2.64231
G1 X180.828 Y99.757 E.02355
G1 X129.315 Y48.245 E2.64231
G1 X128.665 Y48.245 E.02355
G1 X180.178 Y99.757 E2.64231
G1 X179.529 Y99.757 E.02355
G1 X128.016 Y48.245 E2.64231
G1 X127.367 Y48.245 E.02355
G1 X178.88 Y99.757 E2.64231
G1 X178.23 Y99.757 E.02355
G1 X126.717 Y48.245 E2.64231
G1 X126.068 Y48.245 E.02355
G1 X177.581 Y99.757 E2.64231
G1 X176.932 Y99.757 E.02355
G1 X125.419 Y48.245 E2.64231
G1 X124.769 Y48.245 E.02355
G1 X176.282 Y99.757 E2.64231
G1 X175.633 Y99.757 E.02355
G1 X124.12 Y48.245 E2.64231
G1 X123.47 Y48.245 E.02355
G1 X174.983 Y99.757 E2.64231
G1 X174.334 Y99.757 E.02355
G1 X122.821 Y48.245 E2.64231
G1 X122.172 Y48.245 E.02355
G1 X173.685 Y99.757 E2.64231
G1 X173.035 Y99.757 E.02355
G1 X121.522 Y48.245 E2.64231
G1 X120.873 Y48.245 E.02355
G1 X172.386 Y99.757 E2.64231
G1 X171.737 Y99.757 E.02355
G1 X120.224 Y48.245 E2.64231
G2 X119.613 Y48.284 I-.064 J3.796 E.02221
G1 X171.087 Y99.757 E2.64031
G1 X170.438 Y99.757 E.02355
G1 X119.111 Y48.43 E2.63278
G2 X118.711 Y48.679 I.68 J1.541 E.01716
G1 X169.789 Y99.757 E2.62001
G1 X169.139 Y99.757 E.02355
G1 X118.436 Y49.054 E2.60078
G2 X118.39 Y49.657 I1.524 J.42 E.02207
G1 X168.49 Y99.757 E2.56985
G1 X167.841 Y99.757 E.02355
G1 X118.39 Y50.307 E2.53654
G1 X118.39 Y50.956 E.02355
G1 X167.398 Y99.964 E2.51384
G1 X167.398 Y100.614 E.02355
G1 X118.39 Y51.605 E2.51384
M73 P1 R91
G1 X118.39 Y52.255 E.02355
G1 X167.398 Y101.263 E2.51384
G1 X167.398 Y101.912 E.02355
G1 X118.39 Y52.904 E2.51384
G1 X118.39 Y53.553 E.02355
G1 X167.398 Y102.562 E2.51384
G1 X167.398 Y103.211 E.02355
G1 X118.39 Y54.203 E2.51384
G1 X118.39 Y54.852 E.02355
G1 X166.838 Y103.3 E2.4851
G1 X166.188 Y103.3 E.02355
G1 X118.39 Y55.501 E2.45179
G1 X118.39 Y56.151 E.02355
G1 X165.539 Y103.3 E2.41848
G1 X164.89 Y103.3 E.02355
G1 X118.39 Y56.8 E2.38518
G1 X118.39 Y57.449 E.02355
G1 X164.24 Y103.3 E2.35187
G1 X163.591 Y103.3 E.02355
G1 X118.39 Y58.099 E2.31856
G1 X118.39 Y58.748 E.02355
G1 X159.399 Y99.757 E2.10354
G1 X158.75 Y99.757 E.02355
G1 X118.39 Y59.398 E2.07023
G1 X118.39 Y59.95 E.02003
G1 X118.293 Y59.95 E.00352
G1 X158.1 Y99.757 E2.0419
G1 X157.451 Y99.757 E.02355
G1 X117.643 Y59.95 E2.0419
G1 X116.994 Y59.95 E.02355
G1 X156.802 Y99.757 E2.0419
G1 X156.152 Y99.757 E.02355
G1 X116.345 Y59.95 E2.0419
M73 P2 R91
G1 X115.695 Y59.95 E.02355
G1 X155.503 Y99.757 E2.0419
G1 X154.854 Y99.757 E.02355
G1 X115.046 Y59.95 E2.0419
G1 X114.7 Y59.95 E.01255
G1 X114.7 Y60.253 E.011
G1 X154.204 Y99.757 E2.02634
G1 X153.555 Y99.757 E.02355
G1 X114.7 Y60.903 E1.99303
G1 X114.7 Y61.552 E.02355
G1 X152.905 Y99.757 E1.95972
G1 X152.256 Y99.757 E.02355
G1 X118.39 Y65.891 E1.73715
G1 X118.39 Y66.54 E.02355
G1 X151.607 Y99.757 E1.70384
G1 X150.957 Y99.757 E.02355
G1 X118.39 Y67.19 E1.67053
G1 X118.39 Y67.839 E.02355
G1 X150.308 Y99.757 E1.63723
G1 X149.659 Y99.757 E.02355
G1 X118.39 Y68.488 E1.60392
G1 X118.39 Y69.138 E.02355
G1 X149.009 Y99.757 E1.57061
G1 X148.36 Y99.757 E.02355
G1 X118.39 Y69.787 E1.5373
G1 X118.39 Y70.437 E.02355
G1 X147.711 Y99.757 E1.50399
G1 X147.061 Y99.757 E.02355
G1 X118.39 Y71.086 E1.47069
G1 X118.39 Y71.735 E.02355
G1 X146.412 Y99.757 E1.43738
G1 X145.763 Y99.757 E.02355
G1 X118.39 Y72.385 E1.40407
G1 X118.39 Y73.034 E.02355
G1 X145.113 Y99.757 E1.37076
G1 X144.464 Y99.757 E.02355
G1 X118.39 Y73.683 E1.33745
G1 X118.39 Y74.333 E.02355
G1 X143.815 Y99.757 E1.30415
G1 X143.648 Y99.757 E.00604
G1 X143.648 Y100.24 E.01752
G1 X118.39 Y74.982 E1.29561
G1 X118.39 Y75.631 E.02355
G1 X143.648 Y100.89 E1.29561
G1 X143.648 Y101.539 E.02355
G1 X118.39 Y76.281 E1.29561
G1 X118.39 Y76.93 E.02355
G1 X143.648 Y102.188 E1.29561
G1 X143.648 Y102.838 E.02355
G1 X118.39 Y77.579 E1.29561
G1 X118.39 Y78.229 E.02355
G1 X143.461 Y103.3 E1.28602
G1 X142.812 Y103.3 E.02355
G1 X118.39 Y78.878 E1.25271
G1 X118.39 Y79.527 E.02355
G1 X142.162 Y103.3 E1.2194
G1 X141.513 Y103.3 E.02355
G1 X118.39 Y80.177 E1.18609
G1 X118.39 Y80.536 E.01302
G1 X118.099 Y80.536 E.01053
G1 X140.864 Y103.3 E1.16767
G1 X140.214 Y103.3 E.02355
G1 X117.45 Y80.536 E1.16767
G1 X116.801 Y80.536 E.02355
G1 X136.022 Y99.757 E.98596
G1 X136.548 Y99.757 E.01906
G1 X136.548 Y100.283 E.01906
G1 X139.565 Y103.3 E.15476
G1 X138.916 Y103.3 E.02355
G1 X136.548 Y100.932 E.12145
G1 X136.548 Y101.582 E.02355
G1 X138.266 Y103.3 E.08814
G1 X137.617 Y103.3 E.02355
G1 X136.548 Y102.231 E.05484
G1 X136.548 Y102.88 E.02355
G1 X137.173 Y103.506 E.03208
G1 E-.8 F2400
;WIPE_START
G1 F3600
